X: 48
M:4/4
L:1/8
K:D
|:A>FA>f e>de>f|1 a2a2a2z2:|2
M:3/4
L:1/8
(g2f2g2)|(c'2b2a2)|(f2e2f2)|A4 (FG)|A3 (FAd)|(f2e2d2)|
(f2e2e2)|B3 (_B=Bd)|(g2f2e2)|A>Bc>de>f|(g2f2g2)|(b2a2f2)|(g2B2c2)|d4 z2||



